X: 2086
T: Athens Taxi Ride, The
R: reel
M: 4/4
K: Dmajor
|ef f2 ed (3Bcd|ABdA DF F2|ef f2 ed (3Bcd|fdaf eA (3Bcd|
ef f2 ed (3Bcd|ABdA DF F2|DEFA df f2|afeg fd d2||
fdag fa a2|gb b2 fa a2|fdag fa a2|gafa eA (3Bcd|
fdag fa a2|gb b2 fa a2|ABde fa a2|afeg gd d2||

